assets/illustrations/logo-integration/blip-whatsapp.svg

<svg width="276" height="241" viewBox="0 0 276 241" fill="none" xmlns="http://www.w3.org/2000/svg">
<path fill-rule="evenodd" clip-rule="evenodd" d="M74.7744 99.9228C75.7544 100.432 76.1357 101.64 75.6261 102.62L64.4715 124.071C63.9619 125.051 62.7544 125.432 61.7744 124.923C60.7944 124.413 60.4131 123.206 60.9227 122.226L72.0773 100.774C72.5869 99.7945 73.7944 99.4132 74.7744 99.9228Z" fill="#202C44"/>
<path fill-rule="evenodd" clip-rule="evenodd" d="M120 163C120 164.105 119.105 165 118 165H92C90.8954 165 90 164.105 90 163C90 161.895 90.8954 161 92 161H118C119.105 161 120 161.895 120 163Z" fill="#202C44"/>
<path d="M275.064 161.032C275.064 204.681 239.681 240.064 196.032 240.064C152.384 240.064 117 204.681 117 161.032C117 117.384 152.384 82 196.032 82C239.681 82 275.064 117.384 275.064 161.032Z" fill="#56D062"/>
<path d="M156.981 200.678L162.805 179.237C159.212 172.962 157.322 165.842 157.324 158.551C157.334 135.737 175.75 117.177 198.377 117.177C209.36 117.182 219.667 121.491 227.417 129.312C235.169 137.133 239.435 147.528 239.43 158.584C239.421 181.398 221.004 199.96 198.379 199.96C198.377 199.96 198.38 199.96 198.379 199.96H198.361C191.49 199.958 184.74 198.219 178.744 194.924L156.981 200.678Z" fill="url(#paint0_linear_12970_10758)"/>
<path fill-rule="evenodd" clip-rule="evenodd" d="M187.756 140.62C186.96 138.836 186.122 138.801 185.365 138.769C184.746 138.743 184.037 138.744 183.329 138.744C182.62 138.744 181.469 139.013 180.496 140.085C179.521 141.157 176.776 143.748 176.776 149.019C176.776 154.29 180.584 159.383 181.115 160.098C181.646 160.812 188.466 171.974 199.266 176.268C208.242 179.837 210.068 179.127 212.016 178.948C213.965 178.77 218.303 176.357 219.188 173.856C220.074 171.354 220.074 169.211 219.808 168.762C219.543 168.316 218.834 168.048 217.771 167.513C216.709 166.977 211.485 164.385 210.511 164.028C209.537 163.671 208.828 163.492 208.12 164.564C207.411 165.636 205.376 168.048 204.756 168.762C204.136 169.478 203.516 169.568 202.454 169.032C201.391 168.495 197.969 167.365 193.909 163.715C190.75 160.876 188.618 157.369 187.998 156.297C187.378 155.225 187.931 154.645 188.465 154.111C188.942 153.631 189.527 152.86 190.059 152.235C190.589 151.609 190.766 151.163 191.12 150.449C191.474 149.733 191.297 149.108 191.032 148.572C190.766 148.036 188.701 142.739 187.756 140.62Z" fill="white"/>
<path d="M228.467 128.249C220.437 120.148 209.761 115.684 198.385 115.679C174.945 115.679 155.869 134.905 155.86 158.537C155.857 166.091 157.815 173.465 161.536 179.965L155.503 202.174L178.046 196.214C184.257 199.629 191.251 201.429 198.367 201.432H198.385H198.385C221.822 201.432 240.901 182.202 240.911 158.572C240.915 147.119 236.495 136.35 228.467 128.249ZM198.385 194.193H198.372C192.028 194.19 185.808 192.473 180.382 189.227L179.09 188.455L165.713 191.991L169.284 178.846L168.443 177.498C164.905 171.826 163.037 165.271 163.039 158.54C163.047 138.898 178.902 122.918 198.399 122.918C207.84 122.922 216.714 126.633 223.387 133.366C230.061 140.099 233.733 149.05 233.73 158.569C233.722 178.211 217.866 194.193 198.385 194.193Z" fill="white"/>
<path d="M93 162.5C93 188.181 72.1812 209 46.5 209C20.8188 209 0 188.181 0 162.5C0 136.819 20.8188 116 46.5 116C72.1812 116 93 136.819 93 162.5Z" fill="white"/>
<path fill-rule="evenodd" clip-rule="evenodd" d="M46.5 205C69.9721 205 89 185.972 89 162.5C89 139.028 69.9721 120 46.5 120C23.0279 120 4 139.028 4 162.5C4 185.972 23.0279 205 46.5 205ZM46.5 209C72.1812 209 93 188.181 93 162.5C93 136.819 72.1812 116 46.5 116C20.8188 116 0 136.819 0 162.5C0 188.181 20.8188 209 46.5 209Z" fill="#202C44"/>
<path d="M27.8818 166.784C27.8818 168.509 28.2606 169.833 28.7557 170.634C29.4048 171.683 30.373 172.128 31.36 172.128C32.6331 172.128 33.7978 171.812 36.0422 168.71C37.8403 166.224 39.959 162.734 41.3845 160.546L43.7987 156.839C45.4757 154.264 47.4168 151.403 49.6424 149.463C51.4593 147.88 53.4193 147 55.3918 147C58.7034 147 61.8579 148.918 64.2721 152.515C66.9141 156.454 68.1967 161.416 68.1967 166.536C68.1967 169.58 67.5963 171.817 66.5746 173.584C65.5876 175.293 63.6638 177 60.4276 177V172.128C63.1986 172.128 63.8901 169.583 63.8901 166.671C63.8901 162.521 62.9219 157.916 60.7891 154.626C59.2755 152.292 57.314 150.865 55.156 150.865C52.822 150.865 50.9438 152.625 48.833 155.761C47.7107 157.428 46.5587 159.459 45.2651 161.75L43.8411 164.271C40.9806 169.34 40.256 170.494 38.8257 172.399C36.3188 175.736 34.1781 177 31.36 177C28.017 177 25.903 175.553 24.5937 173.373C23.525 171.597 23 169.266 23 166.61L27.8818 166.784Z" fill="#0081FB"/>
<path d="M26.8491 152.859C29.0873 149.411 32.3172 147 36.0217 147C38.1671 147 40.3 147.635 42.5271 149.452C44.9633 151.439 47.5598 154.71 50.7991 160.103L51.9606 162.038C54.7646 166.706 56.3599 169.107 57.2935 170.24C58.4943 171.694 59.3352 172.128 60.4276 172.128C63.1985 172.128 63.8901 169.583 63.8901 166.671L68.1966 166.536C68.1966 169.58 67.5962 171.817 66.5746 173.584C65.5875 175.293 63.6637 177 60.4276 177C58.4157 177 56.6334 176.563 54.6625 174.705C53.1473 173.279 51.376 170.746 50.0133 168.468L45.9598 161.702C43.926 158.306 42.0603 155.774 40.9805 154.627C39.819 153.394 38.3259 151.905 35.9431 151.905C34.0146 151.905 32.3769 153.258 31.0063 155.326L26.8491 152.859Z" fill="url(#paint1_linear_12970_10758)"/>
<path d="M35.9432 151.905C34.0147 151.905 32.3769 153.258 31.0064 155.326C29.0684 158.249 27.8818 162.603 27.8818 166.784C27.8818 168.509 28.2606 169.833 28.7557 170.634L24.5937 173.373C23.525 171.597 23 169.266 23 166.61C23 161.78 24.3265 156.746 26.8492 152.859C29.0873 149.411 32.3172 147 36.0218 147L35.9432 151.905Z" fill="url(#paint2_linear_12970_10758)"/>
<path d="M149.903 56.4516C149.903 87.6289 124.629 112.903 93.4516 112.903C62.2742 112.903 37 87.6289 37 56.4516C37 25.2742 62.2742 0 93.4516 0C124.629 0 149.903 25.2742 149.903 56.4516Z" fill="#00C6D7"/>
<path fill-rule="evenodd" clip-rule="evenodd" d="M93.4516 108.903C122.42 108.903 145.903 85.4198 145.903 56.4516C145.903 27.4834 122.42 4 93.4516 4C64.4834 4 41 27.4834 41 56.4516C41 85.4198 64.4834 108.903 93.4516 108.903ZM93.4516 112.903C124.629 112.903 149.903 87.6289 149.903 56.4516C149.903 25.2742 124.629 0 93.4516 0C62.2742 0 37 25.2742 37 56.4516C37 87.6289 62.2742 112.903 93.4516 112.903Z" fill="#202C44"/>
<path d="M92.5988 29.3577C86.3365 29.3577 79.8557 30.3887 75.4137 33.1135C68.2048 37.6057 66.093 46.3693 66.3843 54.4701C66.6028 61.4662 68.4232 68.9778 73.3749 74.1329C78.0352 79.067 87.6472 81.2763 94.2737 81.2763C94.5649 81.2763 94.8562 81.4972 94.8562 81.8655V88.9352C94.8562 89.598 95.3659 90.1872 96.0941 90.1872C96.1669 90.1872 96.1669 90.1872 96.2397 90.1872C96.531 90.1872 96.7495 90.0399 96.8951 89.8926C100.172 87.0205 103.522 84.0748 106.726 81.129C109.784 78.2569 113.279 75.3112 115.609 71.8499C120.634 64.5592 121.435 54.3228 119.76 45.7802C118.158 37.6057 112.405 32.2298 104.395 30.536C100.973 29.7995 96.8223 29.3577 92.5988 29.3577Z" fill="white"/>
<defs>
<linearGradient id="paint0_linear_12970_10758" x1="198.206" y1="200.678" x2="198.206" y2="117.177" gradientUnits="userSpaceOnUse">
<stop stop-color="#20B038"/>
<stop offset="1" stop-color="#60D66A"/>
</linearGradient>
<linearGradient id="paint1_linear_12970_10758" x1="32.5875" y1="165.377" x2="63.7076" y2="166.95" gradientUnits="userSpaceOnUse">
<stop stop-color="#0064E1"/>
<stop offset="0.4" stop-color="#0064E1"/>
<stop offset="0.83" stop-color="#0073EE"/>
<stop offset="1" stop-color="#0082FB"/>
</linearGradient>
<linearGradient id="paint2_linear_12970_10758" x1="30.0728" y1="168.832" x2="30.0728" y2="157.366" gradientUnits="userSpaceOnUse">
<stop stop-color="#0082FB"/>
<stop offset="1" stop-color="#0064E0"/>
</linearGradient>
</defs>
</svg>

<svg width="276" height="241" fill="none" xmlns="http://www.w3.org/2000/svg"><path fill-rule="evenodd" clip-rule="evenodd" d="M74.774 99.923a2 2 0 0 1 .852 2.697l-11.154 21.451a2 2 0 0 1-3.55-1.845l11.155-21.452a2 2 0 0 1 2.697-.851ZM120 163a2 2 0 0 1-2 2H92a2 2 0 1 1 0-4h26a2 2 0 0 1 2 2Z" fill="#202C44"/><path d="M275.064 161.032c0 43.649-35.383 79.032-79.032 79.032-43.648 0-79.032-35.383-79.032-79.032C117 117.384 152.384 82 196.032 82c43.649 0 79.032 35.384 79.032 79.032Z" fill="#56D062"/><path d="m156.981 200.678 5.824-21.441a41.567 41.567 0 0 1-5.481-20.686c.01-22.814 18.426-41.374 41.053-41.374 10.983.005 21.29 4.314 29.04 12.135 7.752 7.821 12.018 18.216 12.013 29.272-.009 22.814-18.426 41.376-41.051 41.376-.002 0 .001 0 0 0h-.018a40.769 40.769 0 0 1-19.617-5.036l-21.763 5.754Z" fill="url(#blip_whatsapp__a)"/><path fill-rule="evenodd" clip-rule="evenodd" d="M187.756 140.62c-.796-1.784-1.634-1.819-2.391-1.851-.619-.026-1.328-.025-2.036-.025-.709 0-1.86.269-2.833 1.341-.975 1.072-3.72 3.663-3.72 8.934 0 5.271 3.808 10.364 4.339 11.079.531.714 7.351 11.876 18.151 16.17 8.976 3.569 10.802 2.859 12.75 2.68 1.949-.178 6.287-2.591 7.172-5.092.886-2.502.886-4.645.62-5.094-.265-.446-.974-.714-2.037-1.25-1.062-.535-6.286-3.127-7.26-3.484-.974-.357-1.683-.536-2.391.536-.709 1.072-2.744 3.484-3.364 4.198-.62.716-1.24.806-2.302.27-1.063-.537-4.485-1.667-8.545-5.317-3.159-2.839-5.291-6.346-5.911-7.418-.62-1.072-.067-1.652.467-2.186.477-.48 1.062-1.251 1.594-1.876.53-.626.707-1.072 1.061-1.786.354-.716.177-1.341-.088-1.877-.266-.536-2.331-5.833-3.276-7.952Z" fill="#fff"/><path d="M228.467 128.249c-8.03-8.101-18.706-12.565-30.082-12.57-23.44 0-42.516 19.226-42.525 42.858a43.052 43.052 0 0 0 5.676 21.428l-6.033 22.209 22.543-5.96a42.228 42.228 0 0 0 20.321 5.218h.018c23.437 0 42.516-19.23 42.526-42.86.004-11.453-4.416-22.222-12.444-30.323Zm-30.082 65.944h-.013a35.08 35.08 0 0 1-17.99-4.966l-1.292-.772-13.377 3.536 3.571-13.145-.841-1.348a35.753 35.753 0 0 1-5.404-18.958c.008-19.642 15.863-35.622 35.36-35.622 9.441.004 18.315 3.715 24.988 10.448 6.674 6.733 10.346 15.684 10.343 25.203-.008 19.642-15.864 35.624-35.345 35.624ZM93 162.5c0 25.681-20.819 46.5-46.5 46.5S0 188.181 0 162.5 20.819 116 46.5 116 93 136.819 93 162.5Z" fill="#fff"/><path fill-rule="evenodd" clip-rule="evenodd" d="M46.5 205c23.472 0 42.5-19.028 42.5-42.5S69.972 120 46.5 120 4 139.028 4 162.5 23.028 205 46.5 205Zm0 4c25.681 0 46.5-20.819 46.5-46.5S72.181 116 46.5 116 0 136.819 0 162.5 20.819 209 46.5 209Z" fill="#202C44"/><path d="M27.882 166.784c0 1.725.379 3.049.874 3.85.649 1.049 1.617 1.494 2.604 1.494 1.273 0 2.438-.316 4.682-3.418 1.798-2.486 3.917-5.976 5.343-8.164l2.414-3.707c1.677-2.575 3.618-5.436 5.843-7.376C51.46 147.88 53.42 147 55.392 147c3.311 0 6.466 1.918 8.88 5.515 2.642 3.939 3.925 8.901 3.925 14.021 0 3.044-.6 5.281-1.622 7.048-.987 1.709-2.911 3.416-6.147 3.416v-4.872c2.77 0 3.462-2.545 3.462-5.457 0-4.15-.968-8.755-3.1-12.045-1.514-2.334-3.476-3.761-5.634-3.761-2.334 0-4.212 1.76-6.323 4.896-1.122 1.667-2.274 3.698-3.568 5.989l-1.424 2.521c-2.86 5.069-3.585 6.223-5.015 8.128-2.507 3.337-4.648 4.601-7.466 4.601-3.343 0-5.457-1.447-6.766-3.627-1.069-1.776-1.594-4.107-1.594-6.763l4.882.174Z" fill="#0081FB"/><path d="M26.85 152.859c2.237-3.448 5.467-5.859 9.172-5.859 2.145 0 4.278.635 6.505 2.452 2.436 1.987 5.033 5.258 8.272 10.651l1.162 1.935c2.804 4.668 4.399 7.069 5.333 8.202 1.2 1.454 2.041 1.888 3.134 1.888 2.77 0 3.462-2.545 3.462-5.457l4.307-.135c0 3.044-.6 5.281-1.622 7.048-.987 1.709-2.911 3.416-6.147 3.416-2.012 0-3.795-.437-5.766-2.295-1.515-1.426-3.286-3.959-4.649-6.237l-4.053-6.766c-2.034-3.396-3.9-5.928-4.98-7.075-1.161-1.233-2.654-2.722-5.037-2.722-1.928 0-3.566 1.353-4.937 3.421l-4.157-2.467Z" fill="url(#blip_whatsapp__b)"/><path d="M35.943 151.905c-1.928 0-3.566 1.353-4.937 3.421-1.938 2.923-3.124 7.277-3.124 11.458 0 1.725.379 3.049.874 3.85l-4.162 2.739C23.525 171.597 23 169.266 23 166.61c0-4.83 1.326-9.864 3.85-13.751 2.237-3.448 5.467-5.859 9.172-5.859l-.079 4.905Z" fill="url(#blip_whatsapp__c)"/><path d="M149.903 56.452c0 31.177-25.274 56.451-56.451 56.451C62.274 112.903 37 87.629 37 56.452 37 25.274 62.274 0 93.452 0c31.177 0 56.451 25.274 56.451 56.452Z" fill="#00C6D7"/><path fill-rule="evenodd" clip-rule="evenodd" d="M93.452 108.903c28.968 0 52.451-23.483 52.451-52.451C145.903 27.483 122.42 4 93.452 4 64.483 4 41 27.483 41 56.452c0 28.968 23.483 52.451 52.452 52.451Zm0 4c31.177 0 56.451-25.274 56.451-56.451C149.903 25.274 124.629 0 93.452 0 62.274 0 37 25.274 37 56.452c0 31.177 25.274 56.451 56.452 56.451Z" fill="#202C44"/><path d="M92.599 29.358c-6.263 0-12.743 1.03-17.185 3.756-7.21 4.492-9.321 13.255-9.03 21.356.219 6.996 2.04 14.508 6.99 19.663 4.661 4.934 14.273 7.143 20.9 7.143.29 0 .582.221.582.59v7.07c0 .662.51 1.251 1.238 1.251h.146c.291 0 .51-.147.655-.294 3.277-2.873 6.627-5.818 9.831-8.764 3.058-2.872 6.553-5.818 8.883-9.28 5.025-7.29 5.826-17.526 4.151-26.069-1.602-8.174-7.355-13.55-15.365-15.244-3.422-.737-7.573-1.178-11.796-1.178Z" fill="#fff"/><defs><linearGradient id="blip_whatsapp__a" x1="198.206" y1="200.678" x2="198.206" y2="117.177" gradientUnits="userSpaceOnUse"><stop stop-color="#20B038"/><stop offset="1" stop-color="#60D66A"/></linearGradient><linearGradient id="blip_whatsapp__b" x1="32.587" y1="165.377" x2="63.708" y2="166.95" gradientUnits="userSpaceOnUse"><stop stop-color="#0064E1"/><stop offset=".4" stop-color="#0064E1"/><stop offset=".83" stop-color="#0073EE"/><stop offset="1" stop-color="#0082FB"/></linearGradient><linearGradient id="blip_whatsapp__c" x1="30.073" y1="168.832" x2="30.073" y2="157.366" gradientUnits="userSpaceOnUse"><stop stop-color="#0082FB"/><stop offset="1" stop-color="#0064E0"/></linearGradient></defs></svg>
